X: 343
T: COME ALONG WITH ME
T: Tar liomsa
B: O'Neill's 343
M: 2/4
L: 1/8
Z: 1999 by John Chambers <jc@trillian.mit.edu>
N: "With force"
N: "Collected by J.O'Neill"
K:G
D \
| G2 A>F | G2 A>c | d2 c>A | G>F D>F \
| G2 A>F | G2 ((3ABc) | d2 e>c | (d2 d) ||
|| (B/c/) \
| d2 f>d | g2 d>c | B2 c>A | G>F D>F \
| G2 A>F | G2 ((3ABc) | d2 c>A | (G2 G) ||


